X:198
T:Bohemia First Scot Sett No.3. Le4.198
M:6/8
L:1/8
Q:3/8=90
N:* 7 bar A part as in Mss
B:L.Leadley MS#4 c1850
Z:Village Music Project 2016 Steve Mansfield
K:A
"*" e | {f}e^de e'c'a & A3 A3 | edc cfe | e3 d2d | {e}dcd g2a & A3 A3 |
d'3 d'c'b & A3 A3 | agf efg & AAA AAA | [Gb]3 [Aa]2 ||
b | g2e f2d | e3 Beg | b2 e' c'2a | g3 f2g |
agf ^d'c'b | e'3- e'c'a | gc'b fag | e3 e2 !segno! ||
e | =cBA B2c | A3 F2e | =cBA cBA | =c3 B2c |
d=cB =fed | bag d'=c'b | ae=c B=fe | A3 A2 !D.C.! |]

